assets/material-symbols_search (1).svg

<svg width="22" height="22" viewBox="0 0 22 22" fill="none" xmlns="http://www.w3.org/2000/svg">
<path d="M17.9667 19.25L12.1917 13.475C11.7333 13.8417 11.2063 14.1319 10.6104 14.3458C10.0146 14.5597 9.38056 14.6667 8.70833 14.6667C7.04306 14.6667 5.63383 14.0898 4.48067 12.936C3.3275 11.7822 2.75061 10.373 2.75 8.70833C2.74939 7.04367 3.32628 5.63444 4.48067 4.48067C5.63506 3.32689 7.04428 2.75 8.70833 2.75C10.3724 2.75 11.7819 3.32689 12.9369 4.48067C14.0919 5.63444 14.6685 7.04367 14.6667 8.70833C14.6667 9.38056 14.5597 10.0146 14.3458 10.6104C14.1319 11.2063 13.8417 11.7333 13.475 12.1917L19.25 17.9667L17.9667 19.25ZM8.70833 12.8333C9.85417 12.8333 10.8283 12.4324 11.6307 11.6307C12.4331 10.8289 12.8339 9.85478 12.8333 8.70833C12.8327 7.56189 12.4318 6.58808 11.6307 5.78692C10.8295 4.98575 9.85539 4.58456 8.70833 4.58333C7.56128 4.58211 6.58747 4.98331 5.78692 5.78692C4.98636 6.59053 4.58517 7.56433 4.58333 8.70833C4.5815 9.85233 4.9827 10.8264 5.78692 11.6307C6.59114 12.4349 7.56495 12.8358 8.70833 12.8333Z" fill="#303030"/>
</svg>

<svg xmlns="http://www.w3.org/2000/svg" width="22" height="22" fill="none" viewBox="0 0 22 22"><path fill="#303030" d="m17.967 19.25-5.775-5.775a5.6 5.6 0 0 1-3.483 1.192q-2.499 0-4.228-1.731-1.73-1.73-1.731-4.228 0-2.497 1.73-4.227Q6.213 2.75 8.709 2.75t4.229 1.73q1.733 1.732 1.73 4.228a5.6 5.6 0 0 1-1.192 3.484l5.775 5.775zm-9.259-6.417q1.719 0 2.923-1.202 1.203-1.203 1.202-2.923 0-1.72-1.202-2.921-1.203-1.201-2.923-1.204-1.72-.001-2.921 1.204-1.2 1.206-1.204 2.921-.002 1.716 1.204 2.923 1.206 1.206 2.921 1.202"/></svg>
